src/icons/guide-cool.svg

<svg xmlns="http://www.w3.org/2000/svg" width="24" height="24" fill="none"><path fill="#998FA3" d="M6 2c-1.0942 0-2 .9057-2 2v16c0 1.0943.9058 2 2 2h12c1.0943 0 2-.9057 2-2V8l-6-6zm0 2h7v5h5v11H6zm2 8v2h8v-2zm0 4v2h8v-2z"/></svg>

<svg width="24" height="24" viewBox="0 0 24 24" fill="none" xmlns="http://www.w3.org/2000/svg">
<path d="M6 2C4.90575 2 4 2.90575 4 4V20C4 21.0943 4.90575 22 6 22H18C19.0943 22 20 21.0943 20 20V8L14 2H6ZM6 4H13V9H18V20H6V4ZM8 12V14H16V12H8ZM8 16V18H16V16H8Z" fill="#998FA3"/>
</svg>
